svgs/sharp-regular/binary.svg

<svg xmlns="http://www.w3.org/2000/svg" viewBox="0 0 384 512"><!--! Font Awesome Pro 6.6.0 by @fontawesome - https://fontawesome.com License - https://fontawesome.com/license (Commercial License) Copyright 2024 Fonticons, Inc. --><path d="M248 0l56 0 24 0 0 24 0 152 32 0 24 0 0 48-24 0-56 0-56 0-24 0 0-48 24 0 32 0 0-128-32 0-24 0 0-48 24 0zM24 288l56 0 24 0 0 24 0 152 32 0 24 0 0 48-24 0-56 0-56 0L0 512l0-48 24 0 32 0 0-128-32 0L0 336l0-48 24 0zM0 0L24 0 168 0l24 0 0 24 0 176 0 24-24 0L24 224 0 224l0-24L0 24 0 0zM48 48l0 128 96 0 0-128L48 48zM216 288l144 0 24 0 0 24 0 176 0 24-24 0-144 0-24 0 0-24 0-176 0-24 24 0zm24 176l96 0 0-128-96 0 0 128z"/></svg>

<svg xmlns="http://www.w3.org/2000/svg" viewBox="0 0 384 512"><!--! Font Awesome Pro 6.5.2 by @fontawesome - https://fontawesome.com License - https://fontawesome.com/license (Commercial License) Copyright 2024 Fonticons, Inc. --><path d="M248 0h56 24V24 176h32 24v48H360 304 248 224V176h24 32V48H248 224V0h24zM24 288H80h24v24V464h32 24v48H136 80 24 0V464H24 56V336H24 0V288H24zM0 0H24 168h24V24 200v24H168 24 0V200 24 0zM48 48V176h96V48H48zM216 288H360h24v24V488v24H360 216 192V488 312 288h24zm24 176h96V336H240V464z"/></svg>
